src/assets/icons/mobile.svg

<svg width="14" height="14" viewBox="0 0 14 14" fill="none" xmlns="http://www.w3.org/2000/svg">
<g id="mobile">
<path id="Vector" fill-rule="evenodd" clip-rule="evenodd" d="M3.59999 1.4C3.59999 1.28954 3.68954 1.2 3.79999 1.2H10.2C10.3105 1.2 10.4 1.28954 10.4 1.4V12.6C10.4 12.7105 10.3105 12.8 10.2 12.8H3.79999C3.68954 12.8 3.59999 12.7105 3.59999 12.6V1.4ZM3.79999 0C3.0268 0 2.39999 0.626801 2.39999 1.4V12.6C2.39999 13.3732 3.0268 14 3.79999 14H10.2C10.9732 14 11.6 13.3732 11.6 12.6V1.4C11.6 0.626801 10.9732 0 10.2 0H3.79999ZM6.19999 10.2C6.19999 10.64 6.55999 11 6.99999 11C7.43999 11 7.79999 10.64 7.79999 10.2C7.79999 9.76 7.43999 9.4 6.99999 9.4C6.55999 9.4 6.19999 9.76 6.19999 10.2Z" fill="black"/>
</g>
</svg>

<svg xmlns="http://www.w3.org/2000/svg" fill="none" viewBox="0 0 14 14"><path fill="#000" fill-rule="evenodd" d="M3.6 1.4c0-.11.09-.2.2-.2h6.4c.11 0 .2.09.2.2v11.2a.2.2 0 0 1-.2.2H3.8a.2.2 0 0 1-.2-.2zM3.8 0a1.4 1.4 0 0 0-1.4 1.4v11.2A1.4 1.4 0 0 0 3.8 14h6.4a1.4 1.4 0 0 0 1.4-1.4V1.4A1.4 1.4 0 0 0 10.2 0zm2.4 10.2c0 .44.36.8.8.8s.8-.36.8-.8-.36-.8-.8-.8-.8.36-.8.8" clip-rule="evenodd"/></svg>
